X:313
T:Hornpipe. RH.313
R:.hornpipe
S:Rev.R.Harrison’s MS,c1815,Cumbria
N:Untitled in MS.
O:England
A:Temple Sowerby,Cumbria
Z:vmp.Simon Wilson. Review PJH, 2008.
M:C|
L:1/8
Q:1/2=90
K:D
fd|A2fd A2fd|g2e2 e2fd|A2fd A2fd|e2a2 a2fd|!
A2fd A2fd|g2e2 e2ag|fgaf bgec|dcde d2:|!
|:ef|gfge c2cd|ecec A2Bc|dcde fgaf|g2e2 e2ef|!
afge c2cd|ecec A2Bc|dcde fgec|dcde d2:|

